X: 381
T: Da huache dui
L: 1/8
M: 3/4
K: A
c4 [I:setbarnb 1]| 
c2c e c B | 
[M:2/4]c2c B | 
A3B | 
c2e c | 
B c B A | 
F2A E | 
C4 | 
c2e c | 
B c B A | 
F E F A | 
C4 | 
c2e c | 
B c B A | 
F E F A | 
C4 | 
c4 | 
[M:3/4]c2c e c B | 
[M:2/4]c2c B | 
A3B | 
c c c c | 
B2B F | 
A2G F | 
E FE4 |]

@@@ Tune index: 9255
